public/c.svg

<svg width="92" height="94" viewBox="0 0 92 94" fill="none" xmlns="http://www.w3.org/2000/svg">
<path d="M2.85156 33.0003H89.1432M23.2891 19.0003H23.3299M41.4557 19.0003H41.4966M2.85156 47.0003C2.85156 26.103 2.85156 15.6497 9.16902 9.15833C15.4865 2.66699 25.6553 2.66699 45.9974 2.66699C66.335 2.66699 76.5083 2.66699 82.8258 9.15833C89.1432 15.6497 89.1432 26.0983 89.1432 47.0003C89.1432 67.8977 89.1432 78.351 82.8258 84.8423C76.5083 91.3337 66.3395 91.3337 45.9974 91.3337C25.6598 91.3337 15.4865 91.3337 9.16902 84.8423C2.85156 78.351 2.85156 67.9023 2.85156 47.0003Z" stroke="#265597" stroke-width="4" stroke-linecap="round" stroke-linejoin="round"/>
<path d="M32.9057 54.0003C31.9859 52.9437 30.7755 52.199 29.4348 51.8646C28.094 51.5303 26.6861 51.6221 25.3972 52.128C24.1084 52.6338 22.9994 53.5299 22.217 54.6975C21.4346 55.8651 21.0157 57.2494 21.0156 58.667V63.3337C21.0157 64.7513 21.4346 66.1355 22.217 67.3032C22.9994 68.4708 24.1084 69.3668 25.3972 69.8727C26.6861 70.3785 28.094 70.4704 29.4348 70.136C30.7755 69.8017 31.9859 69.0569 32.9057 68.0003M61.8906 51.667L70.974 70.3337M48.2293 54.0003H48.2747M48.2293 68.0003H48.2747" stroke="#265597" stroke-width="4" stroke-linecap="round" stroke-linejoin="round"/>
</svg>

<svg xmlns="http://www.w3.org/2000/svg" width="92" height="94" fill="none" viewBox="0 0 92 94"><path stroke="#265597" stroke-linecap="round" stroke-linejoin="round" stroke-width="4" d="M2.852 33h86.291M23.29 19h.04m18.127 0h.04M2.853 47c0-20.897 0-31.35 6.317-37.842s16.486-6.491 36.828-6.491c20.338 0 30.511 0 36.829 6.491 6.317 6.492 6.317 16.94 6.317 37.842 0 20.898 0 31.351-6.317 37.842-6.318 6.492-16.486 6.492-36.829 6.492-20.337 0-30.51 0-36.828-6.492C2.852 78.351 2.852 67.902 2.852 47"/><path stroke="#265597" stroke-linecap="round" stroke-linejoin="round" stroke-width="4" d="M32.906 54a6.8 6.8 0 0 0-3.471-2.135 6.64 6.64 0 0 0-4.038.263 6.85 6.85 0 0 0-3.18 2.57 7.14 7.14 0 0 0-1.201 3.969v4.667c0 1.417.419 2.801 1.201 3.97a6.85 6.85 0 0 0 3.18 2.569 6.64 6.64 0 0 0 4.038.263A6.8 6.8 0 0 0 32.905 68m28.986-16.333 9.083 18.667M48.229 54h.046m-.046 14h.046"/></svg>
